X: 1
T: the Burning of the Piper's Hut
T: the Defaulter's March
B: Ross Collection v.4
R: march
Z: 2014 John Chambers <jc:trillian.mit.edu> from MS by Barbara McOwen dated November 2003
S: Page from Concord Slow Scottish Session collection
M: 2/4
L: 1/16
K: Bm
|:\
Bcde f4 | f2a2 f2ed | c2A2 e2A2 | c2ef eAcA |\
Bcde f4 | f2a2 f2ed | c2A2 f2c2 | c2B2 B4 :|
|:\
Bcde f2B2 | a2B2 f2ed | c2A2 e2A2 | c2ef eAcA |\
Bcde f2B2 | a2B2 f2ed | c2A2 f2c2 | c2B2 B4 :|
|:\
Bcde fBce | aBce f2ed | c2A2 e2A2 | c2ef eAcA |\
Bcde fBce | aBce f2ed | c2A2 f2c2 | c2B2 B4 :|
|:\
Bcde fBB2 | aBB2 fBB2 | cAA2 eAA2 | c2ef eAcA |\
Bcde fBB2 | aBB2 f2ed | c2A2 f2c2 | c2B2 B4 :|
